icons/bootstrap/bootstrap-plain.svg

<svg xmlns="http://www.w3.org/2000/svg" viewBox="0 0 128 128"><path fill="#5B4282" d="M75.701 65.603c-2.334-.768-5.694-.603-10.08-.603h-17.621v23h18.844c2.944 0 5.012-.315 6.203-.535 2.099-.376 3.854-1.104 5.264-1.982 1.409-.876 2.568-2.205 3.478-3.881.908-1.676 1.363-3.637 1.363-5.83 0-2.568-.658-4.54-1.975-6.436-1.316-1.896-3.141-2.965-5.476-3.733zM73.282 55.087c2.317-.688 4.064-1.89 5.239-3.487 1.176-1.598 1.763-3.631 1.763-6.044 0-2.286-.549-4.314-1.646-6.054s-2.662-2.413-4.699-3.056c-2.037-.641-5.53-.446-10.48-.446h-15.459v20h16.587c4.042 0 6.939-.38 8.695-.913zM126 18.625c0-9.182-7.443-16.625-16.625-16.625h-91.75c-9.182 0-16.625 7.443-16.625 16.625v91.75c0 9.182 7.443 16.625 16.625 16.625h91.75c9.182 0 16.625-7.443 16.625-16.625v-91.75zm-35.447 66.12c-1.362 2.773-3.047 4.911-5.052 6.415-2.006 1.504-4.521 2.78-7.544 3.548-3.022.769-6.728 1.292-11.113 1.292h-27.844v-69h27.42c5.264 0 9.485.609 12.665 2.002 3.181 1.395 5.671 3.497 7.474 6.395 1.801 2.898 2.702 5.907 2.702 9.071 0 2.945-.8 5.708-2.397 8.308-1.598 2.602-4.011 4.694-7.237 6.292 4.166 1.222 7.37 3.304 9.61 6.248 2.24 2.945 3.36 6.422 3.36 10.432 0 3.227-.681 6.225-2.044 8.997z"/></svg>

<svg version="1.1" xmlns="http://www.w3.org/2000/svg" xmlns:xlink="http://www.w3.org/1999/xlink" viewBox="0 0 128 128">
	<path fill="#5B4282" d="M75.701,65.603C73.367,64.835,70.007,65,65.621,65H48v23h18.844c2.944,0,5.012-0.315,6.203-0.535
		c2.099-0.376,3.854-1.104,5.264-1.982c1.409-0.876,2.568-2.205,3.478-3.881c0.908-1.676,1.363-3.637,1.363-5.83
		c0-2.568-0.658-4.54-1.975-6.436C79.861,67.44,78.036,66.371,75.701,65.603z"/>
	<path fill="#5B4282" d="M73.282,55.087c2.317-0.688,4.064-1.89,5.239-3.487c1.176-1.598,1.763-3.631,1.763-6.044
		c0-2.286-0.549-4.314-1.646-6.054s-2.662-2.413-4.699-3.056C71.902,35.805,68.409,36,63.459,36H48v20h16.587
		C68.629,56,71.526,55.62,73.282,55.087z"/>
	<path fill="#5B4282" d="M126,18.625C126,9.443,118.557,2,109.375,2h-91.75C8.443,2,1,9.443,1,18.625v91.75
		C1,119.557,8.443,127,17.625,127h91.75c9.182,0,16.625-7.443,16.625-16.625V18.625z M90.553,84.745
		c-1.362,2.773-3.047,4.911-5.052,6.415c-2.006,1.504-4.521,2.78-7.544,3.548C74.935,95.477,71.229,96,66.844,96H39V27h27.42
		c5.264,0,9.485,0.609,12.665,2.002c3.181,1.395,5.671,3.497,7.474,6.395c1.801,2.898,2.702,5.907,2.702,9.071
		c0,2.945-0.8,5.708-2.397,8.308c-1.598,2.602-4.011,4.694-7.237,6.292c4.166,1.222,7.37,3.304,9.61,6.248
		c2.24,2.945,3.36,6.422,3.36,10.432C92.597,78.975,91.916,81.973,90.553,84.745z"/>
</svg>
